X:167
T:Maggie May
M:C|
L:1/8
Q:1/4=150
K:D
A2|\
ADDF A3F |GGGB d3B |AAAA BA^GA|E6 AA|
FDDF A2FF|GGGB d2dB|AAFA AGEC |D6 d2|
cccc e2cc|dcdB A2FG|AAAA BA^GA|E6 A2|
FDD/D/F AA2F|G/G/GGB ddcB|AAcB A/A/AGE|D6||
